X:1122
T:Carolan's Devotion.
C:Irish.
M:3/4
L:1/8
Q:1/4=104
I: :: ::
N:initial barline not printed in the book
Z:Jack Campin * www.campin.me.uk * 2009
K:G Minor
g>a   | b2 a2 g>a| g<f d>=efd       |{d}c2{B}A2  G>F|F4
GA    | B2 Bd`cB | c2  d^f`gd       |   cB```AG  G>A|G4:|
G>F   | D2 G2 G2 | GA``G`F=EF       |   D2   B2  B2 |BcAB
GA    | F2 f2 f2 | fg``f`e`dc       |   d2   gf``ga |g4
ga    | b2 ba`ga | b2  d2  d2       |   dc```Bc``d=e|f2B2
B2    | BA`GA`Bc | d2  G2  F3/G//A//|{A}G2   F<E D>E|D4
cd/=e/| f=efa`gf | gf``gb``ag       |   fd```cB``AG |F4
G>A   |TBA`Bd`cB |Tc2  d^f`gd       |   cB```AG  G>A|G4|]

